X:1
T:Title
%%score { ( 1 3 ) | ( 2 4 ) }
L:1/8
M:4/4
K:F
V:1 treble nm="Grand Piano"
V:3 treble 
V:2 bass 
V:4 bass 
V:1
 z4 z2[Q:1/4=106] C2 | F2 F2 F>E F>G | A2 A2 A>G A>[GB] | [Ac]2 [Ac]2 [_Ad]2 [A=B]2 | %4
[M:3/4] [Ac]6 |[M:1/4] [Ac]>[Bd] |[M:4/4] [Ac]2 [GB]2 [GB]>[^FA] [GB]>[Ac] | [GB]2 A2 A>G F>A | %8
 G2 G2 d2 d2 |[M:3/4] c6 |[M:1/4] [Ec]2 |[M:4/4] F2 F2 F>E F>G | A2 A2 A>G A>[GB] | %13
 [Ac]2 [Ac]2 [_Ad]2 [A=B]2 |[M:3/4] [Ac]6 |[M:1/4] [Ac]>[Bd] | %16
[M:4/4] [Ac]2 [GB]2 [GB]>[FA] [GB]>[Ac] | [GB]2 A2 A>G F>A | G2 B2 A2 [EG]2 |[M:3/4] F6 | %20
[M:1/4] c>d |[M:4/4] c6 z2 | c6 z2 | [ce]2 [Bd]>[Ac] [GB]2 [Ec]>[GB] |[M:3/4] [FA]6 |[M:1/4] c>d | %26
[M:4/4] c6 z2 | c6 z2 | [ce]2 [Bd]>[Ac] [GB]2 [FA]>[EG] |[M:3/4] F6 |[M:1/4] c>d |[M:4/4] c6 z2 | %32
 c6 z2 | [ce]2 [Bd]>[Ac] [GB]2 [Ec]>[GB] |[M:3/4] [FA]6 |[M:1/4] c>d |[M:4/4] c6 z2 | c6 z2 | %38
 [ce]2 [Bd]>[Ac] [GB]2 [FA]>[EG] |[M:3/4] F6 |] %40
V:2
 z4 z2 [F,A,]2 | [F,A,C]2 [F,A,C]2 [F,A,C]>[F,G,C] [F,A,C]>[F,B,C] | %2
 [F,CF]2 [F,CF]2 [F,CF]>[F,CE] [F,CF]>[F,C] | [F,F]2 [F,F]2 [F,F]2 [F,F]2 |[M:3/4] F4 z2 | %5
[M:1/4] [F,C]2 |[M:4/4] [C,C]2 [C,C]2 [C,C]>[C,C] [C,C]>[C,C] | %7
 [F,C]2 [F,CF]2 [F,CF]>[F,B,E] [F,A,]>[K:treble][F,CF] | [G,=B,F]2 [G,B,F]2 [G,B,F]2 [G,B,F]2 | %9
[M:3/4][K:bass] G,2 z2 z2 |[M:1/4] [C,G,]2 | %11
[M:4/4] [F,A,C]2 [F,A,C]2 [F,A,C]>[F,G,C] [F,A,C]>[F,B,C] | %12
 [F,CF]2 [F,CF]2 [F,CF]>[F,CE] [F,CF]>[F,C] | [F,F]2 [F,F]2 [F,F]2 [F,F]2 |[M:3/4] F4 z2 | %15
[M:1/4] [F,C]2 |[M:4/4] [C,C]2 [C,C]2 [C,C]>[C,C] [C,C]>[C,C] | %17
 [F,C]2 [F,CF]2 [F,CF]>[F,B,E] [F,A,]>[K:treble][F,CF] | [B,DF]2 [G,DG]2 [CF]2[K:bass] [C,B,]2 | %19
[M:3/4] [F,A,C]6 |[M:1/4][K:treble] A>A |[M:4/4] A6[K:bass][K:treble] z2 | B6[K:bass] z2 | %23
 [C,C]2 [C,C]>[C,C] [C,C]2 [C,C]>[C,C] |[M:3/4] [F,C]2 F,>F, F,2 |[M:1/4][K:treble] A>A | %26
[M:4/4] A6[K:bass][K:treble] z2 | B6[K:bass] z2 | [C,C]2 [C,C]>[C,C] [C,C]2 [C,C]>[C,B,] | %29
[M:3/4] [F,A,]2 [B,,B,]>[B,,B,] [F,A,]2 |[M:1/4][K:treble] A>A |[M:4/4] A6[K:bass][K:treble] z2 | %32
 B6[K:bass] z2 | [C,C]2 [C,C]>[C,C] [C,C]2 [C,C]>[C,C] |[M:3/4] [F,C]2 F,>F, F,2 | %35
[M:1/4][K:treble] A>A |[M:4/4] A6[K:bass][K:treble] z2 | B6[K:bass] z2 | %38
 [C,C]2 [C,C]>[C,C] [C,C]2 [C,C]>[C,B,] |[M:3/4] [F,A,]2 [B,,B,]>[B,,B,] [F,A,]2 |] %40
V:3
 x8 | x8 | x8 | x8 |[M:3/4] z2 z2 C2 |[M:1/4] x2 |[M:4/4] x8 | x8 | x8 |[M:3/4] E2 F2 G2 | %10
[M:1/4] x2 |[M:4/4] x8 | x8 | x8 |[M:3/4] z2 z2 C2 |[M:1/4] x2 |[M:4/4] x8 | x8 | x8 |[M:3/4] x6 | %20
[M:1/4] x2 |[M:4/4] z2 F>F F2 c>d | z2 E>E E2 [EBc]2 | x8 |[M:3/4] z2 C>C C2 |[M:1/4] x2 | %26
[M:4/4] z2 F>F F2 c>d | z2 E>E E2 [EBc]2 | x8 |[M:3/4] z2 D>D C2 |[M:1/4] x2 | %31
[M:4/4] z2 F>F F2 c>d | z2 E>E E2 [EBc]2 | x8 |[M:3/4] z2 C>C C2 |[M:1/4] x2 | %36
[M:4/4] z2 F>F F2 c>d | z2 E>E E2 [EBc]2 | x8 |[M:3/4] z2 D>D C2 |] %40
V:4
 x8 | x8 | x8 | x8 |[M:3/4] F,6 |[M:1/4] x2 |[M:4/4] x8 | x15/2[K:treble] x/ | x8 | %9
[M:3/4][K:bass] C,2- [C,-A,]2 [C,B,]2 |[M:1/4] x2 |[M:4/4] x8 | x8 | x8 |[M:3/4] F,6 |[M:1/4] x2 | %16
[M:4/4] x8 | x15/2[K:treble] x/ | x6[K:bass] x2 |[M:3/4] x6 |[M:1/4][K:treble] x2 | %21
[M:4/4] z2[K:bass] F,>F, F,2[K:treble] A>A | z2 G,>G,[K:bass] G,2 G,2 | x8 |[M:3/4] x6 | %25
[M:1/4][K:treble] x2 |[M:4/4] z2[K:bass] F,>F, F,2[K:treble] A>A | z2 G,>G,[K:bass] G,2 G,2 | x8 | %29
[M:3/4] x6 |[M:1/4][K:treble] x2 |[M:4/4] z2[K:bass] F,>F, F,2[K:treble] A>A | %32
 z2 G,>G,[K:bass] G,2 G,2 | x8 |[M:3/4] x6 |[M:1/4][K:treble] x2 | %36
[M:4/4] z2[K:bass] F,>F, F,2[K:treble] A>A | z2 G,>G,[K:bass] G,2 G,2 | x8 |[M:3/4] x6 |] %40

